!!! OTL: Berkowitz372
!!! Chapter: 1
!!! Section: III
!!! Page: 91
!!! Mode: 
!!! Encoder: DJB
**kern
*staff1
*I"Piano
=1-
*clefC3
*k[f#c#g#]
*f#:
*M9/8
4.r
4.r
8r
8r
8c#\
=2
8.c#\L
16d\K
8c#\J
8a\L
8g#\
8f#\J
8e#\
8r
[8c#\
=3
8.c#\L]
16d\K
8c#\J
8b\L
8a\
8g#\J
4.a\
=4
8.dd\L
16b\K
8g#\J
8e\L
8g#\
8b\J
8dd\L
8cc#\
8b\J
=5
!!linebreak:original
8.cc#\L
16a\K
8f#\J
8d\L
8f#\
8a\J
4cc#\
16b\LL
16a\JJ
=6
8.b\L
16g#\K
8e#\J
8c#\L
8e#\
8g#\J
8b\L
8a\
8g#\J
=7
[4.f#\
8f#\L]
8A\
8c#\J
4F#/
8r
==
*-
